X: 29812
T: O'Connell's Farewell To Dublin
R: reel
M: 4/4
K: Adorian
(3ABc BG A2 (3Bcd|eaaf gedB|G2 GA GEDE|G2BG AGEG|
AcBG A2 (3Bcd|eaaf gedg|eaaf gfef|1 gedB A3 G:|2 gedB A2Bd||
eaag agab|(3c’ba (3bag agef|g3a gfef|(3gfe be gedz|
[1 eaag agab|(3c’ba bc’ agef|g3a gfef|gedB A2 Bd:|
[2 eaag agab|(3c’ba bg agef|gzga gfef|gedB A3 B||
cBAB cdef|g2 ag gede|dBGB dege|dBGB dedB|
cBAB cdef|g2 ag gedz|eaaf gfef|gedB A3 B:|
ce ae (3cde (3ABc|(3Bcd gd (3Bcd gd|(3cde ae (3cde ag|egaf gedB|
ce Ae ce (3ABc|Bdgd Bdgz|eaaf gfef|1 gedB A3 B:|2 gedB A3 G|

